Newaita-dark/.DP/24/discord-tray-deafened.svg

<svg xmlns="http://www.w3.org/2000/svg" xmlns:xlink="http://www.w3.org/1999/xlink" width="24px" height="24px" viewBox="0 0 24 24" version="1.1">
<g id="surface1">
<path style=" stroke:none;fill-rule:nonzero;fill:rgb(93.333334%,93.333334%,93.333334%);fill-opacity:0.392157;" d="M 9.40625 5.742188 C 7.859375 5.816406 6.320312 6.421875 5.117188 7.382812 C 3.75 10.101562 2.953125 13.136719 2.9375 16.1875 C 2.8125 17.824219 5.820312 18.464844 7.609375 18.5 C 8.523438 18.457031 9.15625 17.613281 8.542969 17.21875 C 7.734375 16.929688 6.566406 16.675781 5.984375 16.132812 C 5.351562 15.710938 5.5625 15.289062 5.953125 15.453125 C 7.710938 16.5625 9.789062 17.164062 11.871094 17.1875 C 11.875 17.1875 11.882812 17.1875 11.886719 17.1875 C 11.890625 17.1875 11.898438 17.1875 11.902344 17.1875 C 13.984375 17.164062 16.0625 16.5625 17.820312 15.453125 C 18.210938 15.289062 18.421875 15.710938 17.789062 16.132812 C 17.207031 16.675781 16.039062 16.929688 15.230469 17.21875 C 14.617188 17.613281 15.25 18.457031 16.164062 18.5 C 17.953125 18.464844 20.960938 17.824219 20.835938 16.1875 C 20.820312 13.136719 20.023438 10.101562 18.65625 7.382812 C 17.453125 6.421875 15.914062 5.816406 14.367188 5.742188 C 14.292969 5.757812 14.25 5.875 14.1875 5.925781 C 15.625 6.34375 17.050781 6.941406 18.203125 7.917969 C 16.949219 7.269531 15.601562 6.785156 14.203125 6.574219 C 13.4375 6.445312 12.664062 6.382812 11.886719 6.382812 C 11.109375 6.382812 10.335938 6.445312 9.570312 6.574219 C 8.171875 6.785156 6.824219 7.269531 5.570312 7.917969 C 6.71875 6.941406 8.148438 6.34375 9.585938 5.925781 C 9.523438 5.875 9.480469 5.757812 9.40625 5.742188 Z M 8.523438 11.0625 C 9.457031 11.0625 10.210938 11.8125 10.210938 12.75 C 10.210938 13.6875 9.457031 14.441406 8.523438 14.441406 C 7.585938 14.441406 6.828125 13.6875 6.828125 12.75 C 6.828125 11.8125 7.585938 11.0625 8.523438 11.0625 Z M 15.28125 11.0625 C 16.21875 11.0625 16.976562 11.8125 16.976562 12.75 C 16.976562 13.6875 16.21875 14.441406 15.28125 14.441406 C 14.347656 14.441406 13.59375 13.6875 13.59375 12.75 C 13.59375 11.8125 14.347656 11.0625 15.28125 11.0625 Z M 15.28125 11.0625 "/>
</g>
</svg>

<svg xmlns="http://www.w3.org/2000/svg" width="32" height="32" viewBox="0 0 24 24"><path d="M9.406 5.742c-1.55.074-3.086.676-4.289 1.64-1.367 2.72-2.164 5.755-2.183 8.81-.122 1.632 2.886 2.273 4.671 2.312.915-.047 1.551-.89.938-1.285-.809-.29-1.977-.543-2.559-1.086-.632-.422-.421-.844-.03-.68a11.42 11.42 0 0 0 5.917 1.735h.031a11.42 11.42 0 0 0 5.918-1.735c.39-.164.602.258-.03.68-.583.543-1.75.797-2.56 1.086-.613.394.024 1.238.934 1.285 1.785-.04 4.797-.68 4.672-2.313-.016-3.054-.813-6.09-2.18-8.808-1.203-.965-2.742-1.567-4.289-1.64-.074.015-.117.136-.176.183 1.434.422 2.86 1.015 4.012 1.992-1.254-.648-2.601-1.133-4-1.344a13.56 13.56 0 0 0-2.316-.187 13.56 13.56 0 0 0-2.317.187c-1.398.211-2.746.696-4 1.344 1.153-.977 2.578-1.57 4.012-1.992-.059-.047-.102-.168-.176-.184zM8.52 11.06a1.69 1.69 0 0 1 1.69 1.691c0 .938-.753 1.691-1.69 1.691a1.687 1.687 0 0 1-1.692-1.691 1.69 1.69 0 0 1 1.692-1.691zm6.765 0a1.692 1.692 0 1 1-.001 3.384 1.692 1.692 0 0 1 .001-3.384zm0 0" fill="#bdbdbd" fill-opacity=".392"/></svg>
